!!!!SEGMENT: pl-wnifc--13846--116_anonim--piesni-polskie-i-ruskie-ludu-galicyjskiego-116-czoho-ty-hryciu-tak-smutny-chodysz.krn
!!!cenid: 18xx:3338
!!!COM: Anonim
!!!COM-rismid: pe30004985
!!!CDT:
!!!CNT:
!!!GTL: Pieśni polskie i ruskie ludu galicyjskiego
!!!OTL: 116. Czoho ty Hryciu tak smutny chodysz
!!!PDT: 1833
!!!AGN:
!!!SMS-siglum: PL-Wnifc
!!!SMS-shelfmark: 13846
!!!SMS-shelfwork: 116 G
!!!SMS-variant:
!!!SMS-altvar:
!!!NIFC-rismid: 1001039611
!!!URL-scan: http://repozytorium.nifc.pl/skany/pl-wnifc-nut--13846
!!!ONB-nifc:
!!!AIN: 2 piano 1 vox
!!!key: a
!!!OMD: Moderato quasi Andante
**kern	**kern	**dynam	**kern	**text
*part3	*part2	*part2	*part1	*part1
*staff3	*staff2	*	*staff1	*staff1
*I"FORTEPIAN.	*I"FORTEPIAN.	*	*I"GŁOS.	*
*Ipiano	*Ipiano	*	*Ivox	*
*ICklav	*ICklav	*	*ICvox	*
*IGacmp	*IGacmp	*	*IGsolo	*
*clefF4	*clefG2	*	*clefG2	*
*k[]	*k[]	*	*k[]	*
*a:	*a:	*	*a:	*
*M4/4	*M4/4	*	*M4/4	*
*met(c)	*met(c)	*	*met(c)	*
=1	=1	=1	=1	=1
*^	*^	*	*	*
*ped	*	*	*	*	*	*
.	.	.	.	.	.	.
!	!	!	!	!	!LO:TX:a:t=E.104.	!
[<4E/	[4AA\	4a/ 4c/	2ryy	.	4a/	Czo-
4A/	4E\] 4AA\]	8cc/L 8e/	.	.	8cc/	-ho
.	.	8a/J 8c/	.	.	8a/	ty
(>8qAA/	.	.	.	.	.	.
2c\ 2A\)	2ryy	8.ee/L	2e\	.	(8.ee\L	Hry-
.	.	16cc/K	.	.	16cc\K	.
.	.	8b/	.	.	8b\J)	.
.	.	8a/J	.	.	8a/	-ciu
*Xped	*	*	*	*	*	*
*v	*v	*	*	*	*	*
=2	=2	=2	=2	=2	=2
*ped	*	*	*	*	*
4d\ 4B\ 4E\	8.g#X/L	4e\	.	8.g#X/L	tak
.	16e^</Jk	.	.	16e/Jk	.
4d\ 4B\ 4E\	8.b/L 8.e/	4e\	.	8.b/	smu-
.	16g#^</Jk	.	.	16g#/	-tny-
2c\ 2A\	4a/	4e\	.	4a/	-cho-
.	8e/	4ryy	.	8e/	-dysz,
.	8r	.	.	8r	.
*	*v	*v	*	*	*
!!LO:LB:g=original
=3	=3	=3	=3	=3
*^	*	*	*	*
*ped	*	*	*	*	*
.	.	.	.	.	.
[<4E 4AA/	[4AA\	4a/ 4c/	.	4a/	czom
4A 4E] 4AA/	4AA\]	8cc/L 8e/	.	8cc/	ty
.	.	8a/J 8c/	.	8a/	do
8qAA/	.	.	.	.	.
2c\ 2A\	2ryy	8.ee/L 8.e/	.	(8.ee\L	me-
.	.	16cc/K 16e/	.	16cc\K)	.
.	.	8b/ 8e/	.	8b\J	.
.	.	8a/J 8e/	.	8a/	-ne
*Xped	*	*	*	*	*
*v	*v	*	*	*	*
=4	=4	=4	=4	=4
*	*^	*	*	*
*ped	*	*	*	*	*
.	.	.	.	.	.
4EE/	(<8.g#X/L	2e^\	.	8.g#X/	Hry-
.	16b/K	.	.	16b/	-ciu
4d\ 4B\ 4E\	8.ee/	.	.	8.ee\	ne
.	16g#/Jk)	.	.	16g#/	ho-
[<4c\ [4A\	[<4a 4e/	[4e\	.	4a/	-wo-
8c\] 8A\]	8a/]	8e\]	.	8a/	-rysz?
8r	8r	8r	.	8r	.
!!LO:LB:g=original
=5||	=5||	=5||	=5||	=5||	=5||
[<4G\ [4C\	4cc/ 4e^/	2ryy	.	4cc\	Oj
4c\ 4G\] 4C\]	8.ee/L 8.g^/	.	.	8.ee\	jak
.	16cc/Jk 16e/	.	.	16cc\	ja
(>8qC/	.	.	.	.	.
2e\ 2c\)	(<4.gg/	2g^\	.	4.gg\	ma-
.	8ee/)	.	.	8ee\	-ju
=6	=6	=6	=6	=6	=6
4d\ 4B\	4dd/ 4g/	4g\	.	4dd\	we-
4d\ 4B\ 4G\	(<8.gg/L	4g^\	.	8.gg\	-se-
.	16ff/Jk)	.	.	16ff\	-ły
8c\L (8C\	(8ee\L 8g'\	2ryy	.	(8ee\L	bu-
8D\	8dd\ 8b\ 8f'\	.	.	8dd\	.
8E\J	8cc\ 8a\ 8e'\	.	.	8cc\J)	.
8E/ 8EE/)	8b\J 8g#X\ 8d'\)	.	.	8b\	-ty,
!!LO:LB:g=original
=7	=7	=7	=7	=7	=7
[<4E/ 4AA/	8.a/L	4a\ 4c\	.	(8.a/L	ko-
.	16b/Jk	.	.	16b/Jk)	.
4A/ 4E/] 4AA/	8cc/L	8cc\L 8e\	.	8cc/	-ho
.	8a/J	8a\J 8c\	.	8a/	ja
8qAA/	.	.	.	.	.
(4c\ 4A\	8.ee/L	2e\	.	&((8.ee\L	lu-
.	16cc/K	.	.	16cc\Jk)	.
8d\L 8B\	8b/	.	.	8b/&)	.
8e\J 8c'\)	8a/J	.	.	8a/	-blu,
=8	=8	=8	=8	=8	=8
[4B\ [4E\	8.g#X/L	2e\	.	8.g#X/	ne
.	16b/K	.	.	16b/	mo-
4d\ 4B\] 4E\]	8.ee/	.	.	8.ee\	-hu
.	16g#/Jk	.	.	16g#/	za-
[<4c\ [4A\	4a/	4e\	.	4a/	-bu-
8c\] 8A\]	8a/	8e\	.	8a/	-ty.
8r	8r	8ryy	.	8r	.
*	*v	*v	*	*	*
==	==	==	==	==
*-	*-	*-	*-	*-
!!!system-decoration: s1{(s2,s3)}
!!!RDF**kern: > = above
!!!RDF**kern: < = below
!!!ENC: Anastazja Marusiak
!!!END: 2021-11-10
!!!ENC: Marta Lawrence
!!!END: 2021-11-11
